Costumes/ukulele.svg

<?xml version="1.0" encoding="UTF-8" standalone="no"?>
<svg
   version="1.1"
   width="59.890644"
   height="155.04636"
   viewBox="-1 -1 59.890644 155.04636"
   id="svg22"
   sodipodi:docname="ukulele.svg"
   xmlns:inkscape="http://www.inkscape.org/namespaces/inkscape"
   xmlns:sodipodi="http://sodipodi.sourceforge.net/DTD/sodipodi-0.dtd"
   xmlns="http://www.w3.org/2000/svg"
   xmlns:svg="http://www.w3.org/2000/svg">
  <defs
     id="defs26" />
  <sodipodi:namedview
     id="namedview24"
     pagecolor="#ffffff"
     bordercolor="#000000"
     borderopacity="0.25"
     inkscape:showpageshadow="2"
     inkscape:pageopacity="0.0"
     inkscape:pagecheckerboard="0"
     inkscape:deskcolor="#d1d1d1" />
  <!-- Exported by Scratch - http://scratch.mit.edu/ -->
  <g
     id="ID0.46669195406138897"
     transform="matrix(0.77378094,0,0,0.77378094,-156.7621,-62.767064)">
    <path
       id="ID0.5715679354034364"
       fill="#cc9966"
       d="m 278.7,246.1 c 0,27.6 -17.3,34.1 -38.7,34.1 -21.4,0 -38.7,-6.4 -38.7,-34.1 0,-20.7 5.7,-52.5 19.6,-60.1 4.6,-2.6 13.7,-5 19.1,-5 5.3,0 13.3,2.4 17.9,4.9 14,7.6 20.8,39.4 20.8,60.2 z" />
    <path
       id="ID0.2632656176574528"
       fill="#653614"
       d="m 246.9,265.2 h -13.7 c -0.6,0 -1,-0.5 -1,-1 v -3.8 c 0,-0.6 0.4,-1 1,-1 h 13.7 c 0.6,0 1,0.4 1,1 v 3.8 c 0,0.6 -0.4,1 -1,1 z" />
    <path
       id="ID0.46370426332578063"
       fill="#2f1110"
       d="m 240,211.6 c 4.442,0 8.467,1.804 11.381,4.719 2.915,2.914 4.719,6.939 4.719,11.381 0,4.442 -1.804,8.467 -4.719,11.381 -2.914,2.915 -6.939,4.719 -11.381,4.719 -4.442,0 -8.467,-1.804 -11.381,-4.719 -2.915,-2.914 -4.719,-6.939 -4.719,-11.381 0,-4.442 1.804,-8.467 4.719,-11.381 2.914,-2.915 6.939,-4.719 11.381,-4.719 z" />
    <path
       id="ID0.388372132088989"
       fill="#653614"
       d="m 246.6,115.6 v 97.6 c -2,-1 -4.3,-1.6 -6.7,-1.6 -2.4,0 -4.6,0.5 -6.6,1.5 v -97.5 z" />
    <path
       id="ID0.6198205868713558"
       fill="#653614"
       d="m 248.9,83.8 v 28.9 c 0,1.6 -0.9,3 -2.3,3.6 -0.5,0.2 -1,0.3 -1.6,0.3 h -10.2 c -0.5,0 -1.1,-0.1 -1.5,-0.3 -1.4,-0.6 -2.4,-2 -2.4,-3.6 V 83.8 c 0,-0.2 -0.1,-0.5 0,-0.5 0.7,-0.4 1.5,0.3 2.3,0.3 2.9,0 4.4,-2.4 6.2,-3.7 0.2,-0.1 0.7,-0.1 0.9,0 1.9,1.3 3.3,3.7 6.2,3.7 0.8,0 1.6,-0.7 2.2,-0.3 0.3,0.1 0.2,0.3 0.2,0.5 z" />
    <g
       id="ID0.97087123664096">
      <g
         id="ID0.7588415276259184">
        <path
           id="ID0.8962486400268972"
           fill="#653614"
           d="m 227.1,89.2 h 5.5 v 2.2 h -5.5 z" />
        <path
           id="ID0.5130643951706588"
           fill="#653614"
           d="m 224.7,86.9 c 0.938,0 1.788,0.381 2.404,0.996 0.615,0.616 0.996,1.466 0.996,2.404 0,0.938 -0.381,1.788 -0.996,2.404 -0.616,0.615 -1.466,0.996 -2.404,0.996 -0.938,0 -1.788,-0.381 -2.404,-0.996 -0.615,-0.616 -0.996,-1.466 -0.996,-2.404 0,-0.938 0.381,-1.788 0.996,-2.404 0.616,-0.615 1.466,-0.996 2.404,-0.996 z" />
        <path
           id="ID0.8823780459351838"
           fill="#653614"
           d="m 227.1,103.2 h 5.5 v 2.2 h -5.5 z" />
        <path
           id="ID0.15817534504458308"
           fill="#653614"
           d="m 224.7,100.9 c 0.938,0 1.788,0.381 2.404,0.996 0.615,0.616 0.996,1.466 0.996,2.404 0,0.938 -0.381,1.788 -0.996,2.404 -0.616,0.615 -1.466,0.996 -2.404,0.996 -0.938,0 -1.788,-0.381 -2.404,-0.996 -0.615,-0.616 -0.996,-1.466 -0.996,-2.404 0,-0.938 0.381,-1.788 0.996,-2.404 0.616,-0.615 1.466,-0.996 2.404,-0.996 z" />
      </g>
      <g
         id="ID0.8796758367680013">
        <path
           id="ID0.05671292310580611"
           fill="#653614"
           d="m 247.3,88.2 h 5.5 v 2.2 h -5.5 z" />
        <path
           id="ID0.6627348009496927"
           fill="#653614"
           d="m 255.2,85.9 c 0.938,0 1.788,0.381 2.404,0.996 0.615,0.616 0.996,1.466 0.996,2.404 0,0.938 -0.381,1.788 -0.996,2.404 -0.616,0.615 -1.466,0.996 -2.404,0.996 -0.938,0 -1.788,-0.381 -2.404,-0.996 -0.615,-0.616 -0.996,-1.466 -0.996,-2.404 0,-0.938 0.381,-1.788 0.996,-2.404 0.616,-0.615 1.466,-0.996 2.404,-0.996 z" />
        <path
           id="ID0.06794263934716582"
           fill="#653614"
           d="m 247.3,103.2 h 5.5 v 2.2 h -5.5 z" />
        <path
           id="ID0.03759184991940856"
           fill="#653614"
           d="m 255.2,100.9 c 0.938,0 1.788,0.381 2.404,0.996 0.615,0.616 0.996,1.466 0.996,2.404 0,0.938 -0.381,1.788 -0.996,2.404 -0.616,0.615 -1.466,0.996 -2.404,0.996 -0.938,0 -1.788,-0.381 -2.404,-0.996 -0.615,-0.616 -0.996,-1.466 -0.996,-2.404 0,-0.938 0.381,-1.788 0.996,-2.404 0.616,-0.615 1.466,-0.996 2.404,-0.996 z" />
      </g>
    </g>
    <path
       id="ID0.31520919455215335"
       fill="#ffffff"
       d="m 237.7,261.9 c 0,0.9 -0.7,1.7 -1.7,1.7 -0.9,0 -1.7,-0.8 -1.7,-1.7 0,-0.7 0.5,-1.3 1.1,-1.6 V 116.6 h 1.1 v 143.7 c 0.7,0.2 1.2,0.8 1.2,1.6 z" />
    <path
       id="ID0.5427017947658896"
       fill="#ffffff"
       d="m 241.6,261.9 c 0,0.9 -0.7,1.7 -1.7,1.7 -0.9,0 -1.7,-0.8 -1.7,-1.7 0,-0.7 0.5,-1.3 1.1,-1.6 V 116.6 h 1.1 v 143.7 c 0.7,0.2 1.2,0.8 1.2,1.6 z" />
    <path
       id="ID0.15375822084024549"
       fill="#ffffff"
       d="m 245.5,261.9 c 0,0.9 -0.8,1.7 -1.7,1.7 -0.9,0 -1.7,-0.8 -1.7,-1.7 0,-0.7 0.5,-1.3 1.1,-1.6 V 116.6 h 1.1 v 143.7 c 0.8,0.2 1.2,0.8 1.2,1.6 z" />
  </g>
</svg>

<svg version="1.1" width="79" height="202" viewBox="-1 -1 79 202" xmlns="http://www.w3.org/2000/svg" xmlns:xlink="http://www.w3.org/1999/xlink">
  <!-- Exported by Scratch - http://scratch.mit.edu/ -->
  <g id="ID0.46669195406138897" transform="matrix(0.7737809419631958, 0, 0, 0.7737809419631958, -155.7, -61.4)">
    <path id="ID0.5715679354034364" fill="#CC9966" d="M 278.700 246.100 C 278.700 273.700 261.400 280.200 240 280.200 C 218.600 280.200 201.300 273.800 201.300 246.100 C 201.300 225.400 207 193.600 220.900 186 C 225.500 183.400 234.600 181 240 181 C 245.300 181 253.300 183.400 257.900 185.900 C 271.900 193.500 278.700 225.300 278.700 246.100 Z "/>
    <path id="ID0.2632656176574528" fill="#653614" d="M 246.900 265.200 L 233.200 265.200 C 232.600 265.200 232.200 264.700 232.200 264.200 L 232.200 260.400 C 232.200 259.800 232.600 259.400 233.200 259.400 L 246.900 259.400 C 247.500 259.400 247.900 259.800 247.900 260.400 L 247.900 264.200 C 247.900 264.800 247.500 265.200 246.900 265.200 Z "/>
    <path id="ID0.46370426332578063" fill="#2F1110" d="M 240 211.600 C 244.442 211.600 248.467 213.404 251.381 216.319 C 254.296 219.233 256.100 223.258 256.100 227.700 C 256.100 232.142 254.296 236.167 251.381 239.081 C 248.467 241.996 244.442 243.800 240 243.800 C 235.558 243.800 231.533 241.996 228.619 239.081 C 225.704 236.167 223.900 232.142 223.900 227.700 C 223.900 223.258 225.704 219.233 228.619 216.319 C 231.533 213.404 235.558 211.600 240 211.600 Z "/>
    <path id="ID0.388372132088989" fill="#653614" d="M 246.600 115.600 L 246.600 213.200 C 244.600 212.200 242.300 211.600 239.900 211.600 C 237.500 211.600 235.300 212.100 233.300 213.100 L 233.300 115.600 L 246.600 115.600 Z "/>
    <path id="ID0.6198205868713558" fill="#653614" d="M 248.900 83.800 L 248.900 112.700 C 248.900 114.300 248 115.700 246.600 116.300 C 246.100 116.500 245.600 116.600 245 116.600 L 234.800 116.600 C 234.300 116.600 233.700 116.500 233.300 116.300 C 231.900 115.700 230.900 114.300 230.900 112.700 L 230.900 83.800 C 230.900 83.600 230.800 83.300 230.900 83.300 C 231.600 82.900 232.400 83.600 233.200 83.600 C 236.100 83.600 237.600 81.200 239.400 79.900 C 239.600 79.800 240.100 79.800 240.300 79.900 C 242.200 81.200 243.600 83.600 246.500 83.600 C 247.300 83.600 248.100 82.900 248.700 83.300 C 249 83.400 248.900 83.600 248.900 83.800 Z "/>
    <g id="ID0.97087123664096">
      <g id="ID0.7588415276259184">
        <path id="ID0.8962486400268972" fill="#653614" d="M 227.100 89.200 L 232.600 89.200 L 232.600 91.400 L 227.100 91.400 L 227.100 89.200 Z "/>
        <path id="ID0.5130643951706588" fill="#653614" d="M 224.700 86.900 C 225.638 86.900 226.488 87.281 227.104 87.896 C 227.719 88.512 228.100 89.362 228.100 90.300 C 228.100 91.238 227.719 92.088 227.104 92.704 C 226.488 93.319 225.638 93.700 224.700 93.700 C 223.762 93.700 222.912 93.319 222.296 92.704 C 221.681 92.088 221.300 91.238 221.300 90.300 C 221.300 89.362 221.681 88.512 222.296 87.896 C 222.912 87.281 223.762 86.900 224.700 86.900 Z "/>
        <path id="ID0.8823780459351838" fill="#653614" d="M 227.100 103.200 L 232.600 103.200 L 232.600 105.400 L 227.100 105.400 L 227.100 103.200 Z "/>
        <path id="ID0.15817534504458308" fill="#653614" d="M 224.700 100.900 C 225.638 100.900 226.488 101.281 227.104 101.896 C 227.719 102.512 228.100 103.362 228.100 104.300 C 228.100 105.238 227.719 106.088 227.104 106.704 C 226.488 107.319 225.638 107.700 224.700 107.700 C 223.762 107.700 222.912 107.319 222.296 106.704 C 221.681 106.088 221.300 105.238 221.300 104.300 C 221.300 103.362 221.681 102.512 222.296 101.896 C 222.912 101.281 223.762 100.900 224.700 100.900 Z "/>
      </g>
      <g id="ID0.8796758367680013">
        <path id="ID0.05671292310580611" fill="#653614" d="M 247.300 88.200 L 252.800 88.200 L 252.800 90.400 L 247.300 90.400 L 247.300 88.200 Z "/>
        <path id="ID0.6627348009496927" fill="#653614" d="M 255.200 85.900 C 256.138 85.900 256.988 86.281 257.604 86.896 C 258.219 87.512 258.600 88.362 258.600 89.300 C 258.600 90.238 258.219 91.088 257.604 91.704 C 256.988 92.319 256.138 92.700 255.200 92.700 C 254.262 92.700 253.412 92.319 252.796 91.704 C 252.181 91.088 251.800 90.238 251.800 89.300 C 251.800 88.362 252.181 87.512 252.796 86.896 C 253.412 86.281 254.262 85.900 255.200 85.900 Z "/>
        <path id="ID0.06794263934716582" fill="#653614" d="M 247.300 103.200 L 252.800 103.200 L 252.800 105.400 L 247.300 105.400 L 247.300 103.200 Z "/>
        <path id="ID0.03759184991940856" fill="#653614" d="M 255.200 100.900 C 256.138 100.900 256.988 101.281 257.604 101.896 C 258.219 102.512 258.600 103.362 258.600 104.300 C 258.600 105.238 258.219 106.088 257.604 106.704 C 256.988 107.319 256.138 107.700 255.200 107.700 C 254.262 107.700 253.412 107.319 252.796 106.704 C 252.181 106.088 251.800 105.238 251.800 104.300 C 251.800 103.362 252.181 102.512 252.796 101.896 C 253.412 101.281 254.262 100.900 255.200 100.900 Z "/>
      </g>
    </g>
    <path id="ID0.31520919455215335" fill="#FFFFFF" d="M 237.700 261.900 C 237.700 262.800 237 263.600 236 263.600 C 235.100 263.600 234.300 262.800 234.300 261.900 C 234.300 261.200 234.800 260.600 235.400 260.300 L 235.400 116.600 L 236.500 116.600 L 236.500 260.300 C 237.200 260.500 237.700 261.100 237.700 261.900 Z "/>
    <path id="ID0.5427017947658896" fill="#FFFFFF" d="M 241.600 261.900 C 241.600 262.800 240.900 263.600 239.900 263.600 C 239 263.600 238.200 262.800 238.200 261.900 C 238.200 261.200 238.700 260.600 239.300 260.300 L 239.300 116.600 L 240.400 116.600 L 240.400 260.300 C 241.100 260.500 241.600 261.100 241.600 261.900 Z "/>
    <path id="ID0.15375822084024549" fill="#FFFFFF" d="M 245.500 261.900 C 245.500 262.800 244.700 263.600 243.800 263.600 C 242.900 263.600 242.100 262.800 242.100 261.900 C 242.100 261.200 242.600 260.600 243.200 260.300 L 243.200 116.600 L 244.300 116.600 L 244.300 260.300 C 245.100 260.500 245.500 261.100 245.500 261.900 Z "/>
  </g>
</svg>
